img/advantages_icon-2.svg

<svg width="100" height="100" viewBox="0 0 100 100" fill="none" xmlns="http://www.w3.org/2000/svg">
<path d="M65 74H35C33.4087 74 31.8826 74.6322 30.7574 75.7574C29.6321 76.8826 29 78.4087 29 80C29 81.5913 29.6321 83.1174 30.7574 84.2426C31.8826 85.3678 33.4087 86 35 86H65C66.5913 86 68.1174 85.3678 69.2426 84.2426C70.3678 83.1174 71 81.5913 71 80C71 78.4087 70.3678 76.8826 69.2426 75.7574C68.1174 74.6322 66.5913 74 65 74ZM65 84H35C33.9391 84 32.9217 83.5786 32.1716 82.8284C31.4214 82.0783 31 81.0609 31 80C31 78.9391 31.4214 77.9217 32.1716 77.1716C32.9217 76.4214 33.9391 76 35 76H65C66.0609 76 67.0783 76.4214 67.8284 77.1716C68.5786 77.9217 69 78.9391 69 80C69 81.0609 68.5786 82.0783 67.8284 82.8284C67.0783 83.5786 66.0609 84 65 84ZM100 50.08V50C100 49.69 100 49.38 100 49.07V49C100 48.47 100 47.94 100 47.42C100 46.58 99.9 45.75 99.81 44.92C99.81 44.78 99.81 44.65 99.81 44.52C99.74 43.84 99.66 43.16 99.55 42.52C99.44 41.88 99.35 41.3 99.23 40.69L99.14 40.17C96.926 29.0996 91.0307 19.1043 82.4134 11.8106C73.7961 4.51698 62.9641 0.354295 51.68 0H51H50.16H50H49.09H49C36.0845 0.255827 23.7693 5.50044 14.6349 14.6349C5.50044 23.7693 0.255827 36.0845 0 49V49.09C0 49.4 0 49.7 0 50C0 50.3 0 50.6 0 50.91V51C0.190121 62.262 4.20698 73.124 11.39 81.8C11.9 82.42 12.39 83.03 12.96 83.62C17.6511 88.7835 23.3708 92.9082 29.7513 95.7289C36.1319 98.5496 43.0321 100.004 50.0083 99.9982C56.9845 99.9926 63.8824 98.5271 70.2584 95.6961C76.6343 92.8651 82.3473 88.7311 87.03 83.56C87.22 83.36 87.39 83.15 87.57 82.94C87.93 82.52 88.3 82.11 88.65 81.68C88.86 81.43 89.05 81.17 89.26 80.91C89.47 80.65 89.88 80.13 90.17 79.73L90.78 78.87C91.06 78.48 91.33 78.09 91.6 77.69C91.87 77.29 91.99 77.08 92.19 76.77C92.39 76.46 92.69 75.99 92.93 75.59C93.17 75.19 93.3 74.94 93.48 74.59C93.66 74.24 93.94 73.79 94.15 73.38C94.36 72.97 94.5 72.71 94.67 72.38C94.84 72.05 95.07 71.57 95.27 71.15C95.47 70.73 95.59 70.46 95.74 70.15L96.28 68.88L96.7 67.82C96.86 67.39 97.02 66.95 97.17 66.52C97.32 66.09 97.42 65.79 97.54 65.42C97.66 65.05 97.82 64.54 97.95 64.1C98.08 63.66 98.16 63.36 98.26 62.98C98.36 62.6 98.5 62.07 98.6 61.61C98.7 61.15 98.78 60.87 98.86 60.49C98.94 60.11 99.05 59.55 99.14 59.08C99.23 58.61 99.28 58.33 99.34 57.96C99.4 57.59 99.48 56.96 99.54 56.48C99.6 56 99.64 55.75 99.68 55.38C99.74 54.86 99.77 54.33 99.81 53.8C99.81 53.46 99.87 53.11 99.89 52.8C99.89 52.22 99.89 51.64 99.94 51.06V50.99C100 50.65 100 50.37 100 50.08ZM85.3 82.48L81.05 78.25C87.8726 70.7881 91.7624 61.108 92 51H98C97.7504 62.686 93.2454 73.8793 85.33 82.48H85.3ZM47 8.10999C37.2562 8.78089 28.0559 12.8467 21 19.6L16.78 15.38C22.7196 9.67499 30.0272 5.59416 38 3.53H38.13C38.83 3.35 39.54 3.19001 40.25 3.04001L40.69 2.95999C41.32 2.82999 41.95 2.72 42.59 2.62L43.38 2.51001L45 2.29999L46.26 2.20001C46.67 2.20001 47.07 2.12999 47.48 2.10999C47.89 2.08999 48.48 2.10999 49.02 2.10999V8.10999C48.32 8.04998 47.63 8.05999 47 8.10999ZM3.53 62C3.53453 61.9501 3.53453 61.8999 3.53 61.85C3.36 61.17 3.2 60.48 3.06 59.79C3.06 59.63 2.98999 59.46 2.95999 59.3C2.83999 58.71 2.73001 58.11 2.64001 57.51L2.51999 56.69C2.44999 56.18 2.37999 55.69 2.32999 55.16C2.27999 54.63 2.26001 54.43 2.23001 54.06C2.20001 53.69 2.15 53.19 2.13 52.74C2.11 52.29 2.13 51.89 2.13 51.46C2.13 51.29 2.13 51.13 2.13 50.96H8.13C8.34604 61.0609 12.2271 70.7387 19.05 78.19L14.8 82.44C9.42344 76.6544 5.55302 69.6347 3.53 62ZM8.06 47.76C8.06 48.16 8.06 48.56 8.06 48.96H2.06C2.06 48.56 2.06 48.16 2.06 47.76C2.06 47.39 2.06 47.03 2.13 46.66C2.90709 35.4605 7.59726 24.8908 15.38 16.8L19.6 21C12.6613 28.2586 8.5652 37.7711 8.06 47.8V47.76ZM50 98C43.6968 98.0031 37.4549 96.7618 31.6324 94.3474C25.8099 91.9329 20.5214 88.3928 16.07 83.93L20.35 79.65C20.7098 79.2894 20.9184 78.805 20.9332 78.2958C20.9481 77.7867 20.7681 77.291 20.43 76.91C15.4027 71.3827 12.0241 64.5578 10.6768 57.2087C9.32959 49.8596 10.0676 42.2801 12.8073 35.3289C15.5469 28.3777 20.1787 22.3328 26.1778 17.8792C32.1769 13.4255 39.3035 10.741 46.75 10.13C47.84 10.04 48.92 10 50 10C58.5595 9.99487 66.8922 12.7514 73.76 17.86C73.9567 18.0046 74.1996 18.0722 74.4427 18.0501C74.6859 18.028 74.9126 17.9177 75.08 17.74C75.1738 17.6376 75.2452 17.5169 75.2898 17.3854C75.3344 17.2539 75.351 17.1147 75.3388 16.9764C75.3266 16.8381 75.2857 16.7039 75.2188 16.5823C75.1518 16.4607 75.0603 16.3543 74.95 16.27C68.0202 11.0912 59.6488 8.20055 51 8V2H52.43L53.61 2.09C53.98 2.09 54.36 2.13999 54.73 2.17999C55.36 2.23999 55.99 2.32 56.62 2.41H56.98C64.8883 3.63583 72.3715 6.79556 78.7651 11.6086C85.1587 16.4217 90.2648 22.7392 93.63 30C93.93 30.6667 94.21 31.3333 94.47 32C94.53 32.13 94.58 32.26 94.63 32.39C94.84 32.93 95.05 33.48 95.25 34.03L95.5 34.78C95.65 35.22 95.8 35.67 95.94 36.12C96.08 36.57 96.15 36.85 96.25 37.22C96.35 37.59 96.45 37.93 96.54 38.28C96.63 38.63 96.77 39.23 96.87 39.71L97.05 40.51C97.17 41.1 97.27 41.69 97.37 42.29C97.37 42.46 97.43 42.63 97.45 42.8C97.57 43.54 97.66 44.28 97.74 45.04C97.74 45.04 97.74 45.1 97.74 45.14C97.82 45.94 97.89 46.75 97.93 47.56C97.93 47.67 97.93 47.78 97.93 47.89C97.93 48.27 97.93 48.65 97.93 49.03H91.93C91.7514 40.7067 89.0795 32.6284 84.26 25.84C84.1634 25.7091 84.0363 25.6038 83.8898 25.5332C83.7432 25.4625 83.5817 25.4287 83.4192 25.4346C83.2566 25.4405 83.098 25.486 82.957 25.5671C82.816 25.6482 82.6968 25.7625 82.61 25.9C82.5045 26.0622 82.4484 26.2515 82.4484 26.445C82.4484 26.6385 82.5045 26.8278 82.61 26.99C87.8575 34.4222 90.4088 43.424 89.8414 52.5044C89.274 61.5847 85.6219 70.1988 79.49 76.92C79.1519 77.301 78.9719 77.7967 78.9868 78.3058C79.0016 78.815 79.2102 79.2993 79.57 79.66L83.85 83.94C79.4073 88.3914 74.1314 91.9242 68.3234 94.3366C62.5154 96.749 56.2891 97.9939 50 98ZM46.39 64.79C47.6606 65.7469 49.2591 66.1602 50.8343 65.9389C52.4094 65.7176 53.8323 64.8799 54.79 63.61C56.46 61.39 81.27 20.45 82.33 18.71C82.4586 18.497 82.5032 18.2438 82.4551 17.9997C82.4071 17.7556 82.2698 17.5383 82.07 17.39C81.8725 17.2426 81.6275 17.1733 81.382 17.1955C81.1366 17.2176 80.9079 17.3296 80.74 17.51C79.35 19.01 46.88 54.17 45.21 56.39C44.2531 57.6606 43.8399 59.2591 44.0611 60.8343C44.2824 62.4094 45.1201 63.8322 46.39 64.79ZM46.81 57.59C47.88 56.17 63.49 39.17 75.45 26.19C66.29 41.28 54.26 60.99 53.19 62.41C52.8806 62.8475 52.4864 63.2184 52.0309 63.5006C51.5754 63.7828 51.0678 63.9707 50.5382 64.0529C50.0087 64.1352 49.4681 64.1102 48.9484 63.9794C48.4287 63.8487 47.9406 63.6149 47.513 63.2919C47.0855 62.9688 46.7272 62.5632 46.4594 62.0991C46.1916 61.6349 46.0199 61.1216 45.9543 60.5898C45.8887 60.0579 45.9307 59.5184 46.0777 59.0031C46.2247 58.4877 46.4737 58.0072 46.81 57.59ZM60 80C60 80.2652 59.8946 80.5196 59.7071 80.7071C59.5196 80.8946 59.2652 81 59 81H41C40.7348 81 40.4804 80.8946 40.2929 80.7071C40.1054 80.5196 40 80.2652 40 80C40 79.7348 40.1054 79.4804 40.2929 79.2929C40.4804 79.1054 40.7348 79 41 79H59C59.2652 79 59.5196 79.1054 59.7071 79.2929C59.8946 79.4804 60 79.7348 60 80Z" fill="url(#paint0_linear_135_10)"/>
<defs>
<linearGradient id="paint0_linear_135_10" x1="25" y1="6.7" x2="75" y2="93.31" gradientUnits="userSpaceOnUse">
<stop stop-color="#26E8D2"/>
<stop offset="1" stop-color="#4E32E7"/>
</linearGradient>
</defs>
</svg>

<svg width="100" height="100" fill="none" xmlns="http://www.w3.org/2000/svg"><path d="M65 74H35a6 6 0 000 12h30a6 6 0 000-12zm0 10H35a4 4 0 110-8h30a4 4 0 110 8zm35-33.92v-2.66c0-.84-.1-1.67-.19-2.5v-.4c-.07-.68-.15-1.36-.26-2-.11-.64-.2-1.22-.32-1.83l-.09-.52A50 50 0 0051.68 0H49A50 50 0 000 49v2a49.61 49.61 0 0011.39 30.8c.51.62 1 1.23 1.57 1.82a50 50 0 0074.07-.06c.19-.2.36-.41.54-.62.36-.42.73-.83 1.08-1.26.21-.25.4-.51.61-.77.21-.26.62-.78.91-1.18l.61-.86c.28-.39.55-.78.82-1.18.27-.4.39-.61.59-.92.2-.31.5-.78.74-1.18.24-.4.37-.65.55-1 .18-.35.46-.8.67-1.21.21-.41.35-.67.52-1 .17-.33.4-.81.6-1.23.2-.42.32-.69.47-1l.54-1.27.42-1.06c.16-.43.32-.87.47-1.3a56.71 56.71 0 00.78-2.42c.13-.44.21-.74.31-1.12.1-.38.24-.91.34-1.37.1-.46.18-.74.26-1.12.08-.38.19-.94.28-1.41.09-.47.14-.75.2-1.12.06-.37.14-1 .2-1.48s.1-.73.14-1.1c.06-.52.09-1.05.13-1.58 0-.34.06-.69.08-1 0-.58 0-1.16.05-1.74v-.07c.06-.34.06-.62.06-.91zm-14.7 32.4l-4.25-4.23A41.84 41.84 0 0092 51h6a48 48 0 01-12.67 31.48h-.03zM47 8.11A41.75 41.75 0 0021 19.6l-4.22-4.22A48 48 0 0138 3.53h.13c.7-.18 1.41-.34 2.12-.49l.44-.08c.63-.13 1.26-.24 1.9-.34l.79-.11L45 2.3l1.26-.1c.41 0 .81-.07 1.22-.09.41-.02 1 0 1.54 0v6c-.7-.06-1.39-.05-2.02 0zM3.53 62a.83.83 0 000-.15c-.17-.68-.33-1.37-.47-2.06 0-.16-.07-.33-.1-.49-.12-.59-.23-1.19-.32-1.79l-.12-.82c-.07-.51-.14-1-.19-1.53-.05-.53-.07-.73-.1-1.1-.03-.37-.08-.87-.1-1.32-.02-.45 0-.85 0-1.28v-.5h6a41.64 41.64 0 0010.92 27.23l-4.25 4.25A48.14 48.14 0 013.53 62zm4.53-14.24v1.2h-6v-1.2c0-.37 0-.73.07-1.1A47.85 47.85 0 0115.38 16.8L19.6 21A41.83 41.83 0 008.06 47.8v-.04zM50 98a47.89 47.89 0 01-33.93-14.07l4.28-4.28a2 2 0 00.08-2.74 40 40 0 0126.32-66.78c1.09-.09 2.17-.13 3.25-.13a39.77 39.77 0 0123.76 7.86 1 1 0 001.32-.12 1 1 0 00-.13-1.47A41.62 41.62 0 0051 8V2h1.43l1.18.09c.37 0 .75.05 1.12.09.63.06 1.26.14 1.89.23h.36A48.6 48.6 0 0193.63 30c.3.667.58 1.333.84 2 .06.13.11.26.16.39.21.54.42 1.09.62 1.64l.25.75c.15.44.3.89.44 1.34.14.45.21.73.31 1.1.1.37.2.71.29 1.06.09.35.23.95.33 1.43l.18.8c.12.59.22 1.18.32 1.78 0 .17.06.34.08.51.12.74.21 1.48.29 2.24v.1c.08.8.15 1.61.19 2.42v1.47h-6a41.6 41.6 0 00-7.67-23.19 1 1 0 00-1.65.06 1 1 0 000 1.09 39.92 39.92 0 01-3.12 49.93 2 2 0 00.08 2.74l4.28 4.28A47.89 47.89 0 0150 98zm-3.61-33.21a6 6 0 008.4-1.18c1.67-2.22 26.48-43.16 27.54-44.9a1 1 0 00-.948-1.515 1 1 0 00-.642.315c-1.39 1.5-33.86 36.66-35.53 38.88a6 6 0 001.18 8.4zm.42-7.2c1.07-1.42 16.68-18.42 28.64-31.4-9.16 15.09-21.19 34.8-22.26 36.22a4 4 0 11-6.38-4.82zM60 80a1 1 0 01-1 1H41a1 1 0 010-2h18a1 1 0 011 1z" fill="url(#paint0_linear_135_10)"/><defs><linearGradient id="paint0_linear_135_10" x1="25" y1="6.7" x2="75" y2="93.31" gradientUnits="userSpaceOnUse"><stop stop-color="#26E8D2"/><stop offset="1" stop-color="#4E32E7"/></linearGradient></defs></svg>
